icons/evolvere-blue-folders-flat-vivid-dark-fallback/devices/64/input-tablet.svg

<?xml version="1.0" encoding="UTF-8" standalone="no"?>
<!-- Created with Inkscape (http://www.inkscape.org/) -->

<svg
   xmlns:dc="http://purl.org/dc/elements/1.1/"
   xmlns:cc="http://creativecommons.org/ns#"
   xmlns:rdf="http://www.w3.org/1999/02/22-rdf-syntax-ns#"
   xmlns:svg="http://www.w3.org/2000/svg"
   xmlns="http://www.w3.org/2000/svg"
   xmlns:sodipodi="http://sodipodi.sourceforge.net/DTD/sodipodi-0.dtd"
   xmlns:inkscape="http://www.inkscape.org/namespaces/inkscape"
   width="64"
   height="64"
   id="svg13094"
   version="1.1"
   inkscape:version="0.91+devel r"
   sodipodi:docname="input-tablet.svg">
  <sodipodi:namedview
     id="base"
     pagecolor="#ffffff"
     bordercolor="#666666"
     borderopacity="1.0"
     inkscape:pageopacity="0"
     inkscape:pageshadow="2"
     inkscape:zoom="8.0000004"
     inkscape:cx="-0.27378598"
     inkscape:cy="32.039616"
     inkscape:document-units="px"
     inkscape:current-layer="svg13094"
     showgrid="true"
     inkscape:snap-bbox="true"
     inkscape:bbox-paths="true"
     inkscape:bbox-nodes="true"
     inkscape:snap-bbox-edge-midpoints="true"
     inkscape:snap-bbox-midpoints="true"
     inkscape:object-paths="true"
     inkscape:snap-intersection-paths="true"
     inkscape:object-nodes="true"
     inkscape:snap-smooth-nodes="true"
     inkscape:snap-midpoints="true"
     inkscape:snap-object-midpoints="true"
     inkscape:snap-center="true"
     showguides="true"
     inkscape:guide-bbox="true"
     inkscape:window-width="1920"
     inkscape:window-height="1023"
     inkscape:window-x="-10"
     inkscape:window-y="35"
     inkscape:window-maximized="1"
     inkscape:snap-global="true"
     fit-margin-top="0"
     fit-margin-left="0"
     fit-margin-right="0"
     fit-margin-bottom="0"
     showborder="true"
     inkscape:showpageshadow="false"
     inkscape:snap-page="true">
    <inkscape:grid
       type="xygrid"
       id="grid3075"
       empspacing="5"
       visible="true"
       enabled="true"
       snapvisiblegridlinesonly="true"
       originx="1.6362304e-08px"
       originy="18px" />
  </sodipodi:namedview>
  <defs
     id="defs13096" />
  <metadata
     id="metadata13099">
    <rdf:RDF>
      <cc:Work
         rdf:about="">
        <dc:format>image/svg+xml</dc:format>
        <dc:type
           rdf:resource="http://purl.org/dc/dcmitype/StillImage" />
        <dc:title></dc:title>
      </cc:Work>
    </rdf:RDF>
  </metadata>
  <path
     inkscape:connector-curvature="0"
     style="color:#000000;fill:#556c86;fill-opacity:1;fill-rule:nonzero;stroke:none;stroke-width:2.28571415;marker:none;visibility:visible;display:inline;overflow:visible;enable-background:accumulate;opacity:1;stroke-linecap:butt;stroke-linejoin:miter;stroke-miterlimit:4;stroke-dasharray:none;stroke-dashoffset:0;stroke-opacity:1"
     d="m 0,2 0,32 0,28 2,2 30,0 30,0 2,-2 0,-28 0,-32 -32,0 z"
     id="path3019"
     sodipodi:nodetypes="ccccccccccc" />
  <path
     inkscape:connector-curvature="0"
     style="color:#000000;fill:#daeaff;fill-opacity:0.33005366;fill-rule:nonzero;stroke:none;stroke-width:2.28571415;marker:none;visibility:visible;display:inline;overflow:visible;enable-background:accumulate"
     d="M 0,2 0,12.322581 1.6362307e-8,22 64,22 64,12.322581 64,2 32,2 z"
     id="path4095"
     sodipodi:nodetypes="cccccccc" />
  <path
     inkscape:connector-curvature="0"
     style="color:#000000;fill:#d4e1ef;fill-opacity:1;fill-rule:nonzero;stroke:none;stroke-width:2.28571415;marker:none;visibility:visible;display:inline;overflow:visible;enable-background:accumulate"
     d="M 2,0 0,1 0,2 32,2 64,2 64,1 62,0 32,0 z"
     id="path4090"
     sodipodi:nodetypes="ccccccccc" />
  <path
     style="fill:#ffffff;fill-opacity:0.41397849;fill-rule:nonzero"
     d="M 0,1 0,4 2,2 Z"
     id="path4298"
     inkscape:connector-curvature="0"
     sodipodi:nodetypes="cccc" />
  <path
     d="M 64,4 62,2 64,1 z"
     id="path3028"
     style="fill:#162f4d;fill-opacity:0.24150269;opacity:1;stroke:none;stroke-width:0.62299293;stroke-linecap:butt;stroke-linejoin:miter;stroke-miterlimit:4;stroke-dasharray:none;stroke-dashoffset:0;stroke-opacity:1;marker:none"
     inkscape:connector-curvature="0"
     sodipodi:nodetypes="cccc" />
  <g
     id="g3043"
     inkscape:export-filename="folder.png"
     inkscape:export-xdpi="90"
     inkscape:export-ydpi="90"
     transform="translate(-0.62500009,0.082283)" />
  <g
     id="scalable"
     transform="matrix(1.0385892,0,0,1.0385892,1214.7222,1878.8121)"
     inkscape:label="#g3701"
     style="fill:#ffffff" />
  <path
     style="font-size:medium;font-style:normal;font-variant:normal;font-weight:normal;font-stretch:normal;text-indent:0;text-align:start;text-decoration:none;line-height:normal;letter-spacing:normal;word-spacing:normal;text-transform:none;direction:ltr;block-progression:tb;writing-mode:lr-tb;text-anchor:start;baseline-shift:baseline;color:#000000;fill:#162f4d;fill-opacity:0.35241502;stroke:none;stroke-width:0.62299293;marker:none;visibility:visible;display:inline;overflow:visible;enable-background:accumulate;font-family:Sans;-inkscape-font-specification:Sans;opacity:1;stroke-linecap:butt;stroke-linejoin:miter;stroke-miterlimit:4;stroke-dasharray:none;stroke-dashoffset:0;stroke-opacity:1"
     d="M 15 2 L 15 22 L 16 22 L 16 13 L 26 13 L 26 12 L 26 11 L 16 11 L 16 2 L 15 2 z M 26 12 C 26 15.301864 28.698137 18 32 18 C 35.301864 18 38 15.301864 38 12 C 38 8.6981362 35.301864 6 32 6 C 28.698137 6 26 8.6981362 26 12 z M 38 12 L 38 13 L 49 13 L 49 22 L 50 22 L 50 2 L 49 2 L 49 11 L 38 11 L 38 12 z M 32 8 C 34.220984 8 36 9.7790165 36 12 C 36 14.220984 34.220984 16 32 16 C 29.779016 16 28 14.220984 28 12 C 28 9.7790165 29.779016 8 32 8 z "
     id="path3814" />
  <path
     transform="scale(-1,-1)"
     style="color:#000000;fill:#162f4d;fill-opacity:0.35241502;stroke:none;stroke-width:0.62299293;marker:none;visibility:visible;display:inline;overflow:visible;enable-background:accumulate;opacity:1;stroke-linecap:butt;stroke-linejoin:miter;stroke-miterlimit:4;stroke-dasharray:none;stroke-dashoffset:0;stroke-opacity:1"
     d="m -55,-53 46,0 0,26 -46,0 z"
     id="rect3867"
     inkscape:connector-curvature="0"
     sodipodi:nodetypes="ccccc" />
  <g
     id="g3932"
     transform="matrix(0.8660254,0.5,-0.5,0.8660254,28.349755,-16.292041)">
    <path
       style="color:#000000;display:inline;overflow:visible;visibility:visible;opacity:1;fill:#162f4d;fill-opacity:0.35241502;fill-rule:nonzero;stroke:none;stroke-width:0.62299293;stroke-linecap:butt;stroke-linejoin:miter;stroke-miterlimit:4;stroke-dasharray:none;stroke-dashoffset:0;stroke-opacity:1;marker:none;enable-background:accumulate"
       d="M 61.253906 41.826172 L 43.576172 59.503906 L 41.53125 64 L 42.169922 64 L 46.226562 62.15625 L 63.904297 44.478516 L 61.253906 41.826172 z "
       transform="rotate(-30,44.57624,44.755342)"
       id="rect2997-2" />
    <g
       transform="matrix(0.60370364,0.1617619,-0.1617619,0.60370364,29.963368,17.990985)"
       id="g3800">
      <path
         style="color:#000000;fill:#a7b9cb;fill-opacity:1;fill-rule:nonzero;stroke:none;stroke-width:10;marker:none;visibility:visible;display:inline;overflow:visible;enable-background:accumulate"
         d="m 45,12 6,0 0,40 -3,8 -3,-8 z"
         id="rect2997"
         inkscape:connector-curvature="0"
         sodipodi:nodetypes="cccccc" />
      <rect
         style="color:#000000;fill:#687a8e;fill-opacity:1;fill-rule:nonzero;stroke:none;stroke-width:10;marker:none;visibility:visible;display:inline;overflow:visible;enable-background:accumulate"
         id="rect3782"
         width="4"
         height="1"
         x="46"
         y="51" />
    </g>
  </g>
</svg>

<svg xmlns="http://www.w3.org/2000/svg" viewBox="0 0 64 64"><g color="#000"><path d="m0 2v32 28l2 2h30 30l2-2v-28-32h-32z" fill="#556c86"/><path d="m0 2v10.323 9.677h64v-9.677-10.323h-32z" fill="#daeaff" fill-opacity=".33"/><path d="m2 0l-2 1v1h32 32v-1l-2-1h-30z" fill="#d4e1ef"/></g><path d="m0 1v3l2-2" fill="#fff" fill-opacity=".414"/><g fill="#162f4d"><path d="m64 4l-2-2 2-1z" fill-opacity=".242"/><g fill-opacity=".352" color="#000"><path d="m15 2v20h1v-9h10v-1-1h-10v-9h-1m11 10c0 3.302 2.698 6 6 6 3.302 0 6-2.698 6-6 0-3.302-2.698-6-6-6-3.302 0-6 2.698-6 6m12 0v1h11v9h1v-20h-1v9h-11v1m-6-4c2.221 0 4 1.779 4 4 0 2.221-1.779 4-4 4-2.221 0-4-1.779-4-4 0-2.221 1.779-4 4-4"/><path transform="scale(-1-1)" d="m-55-53h46v26h-46z"/></g></g><g transform="matrix(.86603.5-.5.86603 28.35-16.292)" color="#000"><path d="m61.25 41.826l-17.678 17.678-2.045 4.496h.639l4.057-1.844 17.678-17.678-2.65-2.652" transform="matrix(.86603-.5.5.86603-16.406 28.28)" fill-opacity=".352" fill="#162f4d"/><g transform="matrix(.6037.16176-.16176.6037 29.963 17.991)"><path d="m45 12h6v40l-3 8-3-8z" fill="#a7b9cb"/><path fill="#687a8e" d="m46 51h4v1h-4z"/></g></g></svg>
